src/assets/images/icons/thereIsFuel.svg

<svg width="13" height="14" viewBox="0 0 13 14" fill="none" xmlns="http://www.w3.org/2000/svg">
<mask id="mask0_359_30" style="mask-type:alpha" maskUnits="userSpaceOnUse" x="0" y="0" width="13" height="14">
<path d="M1.18182 0C0.53731 0 0 0.530422 0 1.16667V13.4167C3.42609e-05 13.7388 0.264573 14 0.590909 14H7.68182C8.00815 14 8.27269 13.7388 8.27273 13.4167V10.7917C8.27273 10.6306 8.40501 10.5 8.56818 10.5H8.86364C9.19698 10.5 9.45455 10.7543 9.45455 11.0833V11.6667C9.45454 12.6263 10.2552 13.4167 11.2273 13.4167C12.1993 13.4167 13 12.6263 13 11.6667V4.08333C13 3.53302 12.7373 3.01329 12.2914 2.68311L10.3998 1.28288C10.1111 1.06917 9.74206 1.17254 9.57227 1.40023C9.37868 1.65982 9.42969 2.02402 9.69114 2.21712L10.3998 2.74121C10.5488 2.85141 10.6365 3.02452 10.6364 3.20833V4.66667C10.6364 5.20472 11.0187 5.66622 11.5262 5.79688C11.6837 5.83743 11.8182 5.96392 11.8182 6.125V11.6667C11.8182 11.9957 11.5606 12.25 11.2273 12.25C10.8939 12.25 10.6364 11.9957 10.6364 11.6667V11.0833C10.6364 10.1237 9.83569 9.33333 8.86364 9.33333H8.56818C8.40501 9.33333 8.27273 9.20275 8.27273 9.04167V1.16667C8.27273 0.530422 7.73542 1.75e-08 7.09091 1.75e-08H1.18182V0ZM4.13636 3.5C4.20807 3.49993 4.2789 3.51558 4.34373 3.54581C4.40857 3.57605 4.4658 3.62011 4.51129 3.67483C4.55678 3.72955 4.5894 3.79355 4.60679 3.86223C4.62418 3.9309 4.62591 4.00253 4.61186 4.07194L4.19407 6.1307C4.18704 6.1654 4.18791 6.20122 4.19661 6.23555C4.2053 6.26989 4.22161 6.30189 4.24436 6.32925C4.2671 6.35661 4.29572 6.37864 4.32813 6.39376C4.36055 6.40888 4.39597 6.4167 4.43182 6.41667H5.31818C5.3871 6.41674 5.45506 6.43259 5.51672 6.46297C5.57839 6.49335 5.63208 6.53744 5.67357 6.59176C5.71506 6.64608 5.74323 6.70916 5.75586 6.77604C5.76849 6.84292 5.76524 6.91178 5.74636 6.97721L4.89 9.93945C4.84315 10.101 4.74425 10.2432 4.60827 10.3443C4.47228 10.4455 4.30662 10.5001 4.13636 10.5C4.06466 10.5001 3.99383 10.4844 3.929 10.4542C3.86416 10.424 3.80693 10.3799 3.76144 10.3252C3.71595 10.2705 3.68333 10.2064 3.66594 10.1378C3.64855 10.0691 3.64681 9.99747 3.66087 9.92806L4.07866 7.8693C4.08568 7.8346 4.08482 7.79878 4.07612 7.76445C4.06743 7.73011 4.05112 7.69811 4.02837 7.67075C4.00563 7.64339 3.97701 7.62136 3.94459 7.60624C3.91218 7.59112 3.87676 7.5833 3.84091 7.58333H2.95455C2.88563 7.58326 2.81767 7.56741 2.756 7.53703C2.69434 7.50665 2.64065 7.46256 2.59916 7.40824C2.55766 7.35392 2.52949 7.29084 2.51686 7.22396C2.50423 7.15708 2.50749 7.08822 2.52637 7.02279L3.38272 4.06055C3.42957 3.89896 3.52848 3.75683 3.66446 3.65569C3.80044 3.55455 3.9661 3.49989 4.13636 3.5Z" fill="url(#paint0_linear_359_30)"/>
</mask>
<g mask="url(#mask0_359_30)">
<path d="M1.18182 0C0.53731 0 0 0.530422 0 1.16667V13.4167C3.42609e-05 13.7388 0.264573 14 0.590909 14H7.68182C8.00815 14 8.27269 13.7388 8.27273 13.4167V10.7917C8.27273 10.6306 8.40501 10.5 8.56818 10.5H8.86364C9.19698 10.5 9.45455 10.7543 9.45455 11.0833V11.6667C9.45454 12.6263 10.2552 13.4167 11.2273 13.4167C12.1993 13.4167 13 12.6263 13 11.6667V4.08333C13 3.53302 12.7373 3.01329 12.2914 2.68311L10.3998 1.28288C10.1111 1.06917 9.74206 1.17254 9.57227 1.40023C9.37868 1.65982 9.42969 2.02402 9.69114 2.21712L10.3998 2.74121C10.5488 2.85141 10.6365 3.02452 10.6364 3.20833V4.66667C10.6364 5.20472 11.0187 5.66622 11.5262 5.79688C11.6837 5.83743 11.8182 5.96392 11.8182 6.125V11.6667C11.8182 11.9957 11.5606 12.25 11.2273 12.25C10.8939 12.25 10.6364 11.9957 10.6364 11.6667V11.0833C10.6364 10.1237 9.83569 9.33333 8.86364 9.33333H8.56818C8.40501 9.33333 8.27273 9.20275 8.27273 9.04167V1.16667C8.27273 0.530422 7.73542 1.75e-08 7.09091 1.75e-08H1.18182V0ZM4.13636 3.5C4.20807 3.49993 4.2789 3.51558 4.34373 3.54581C4.40857 3.57605 4.4658 3.62011 4.51129 3.67483C4.55678 3.72955 4.5894 3.79355 4.60679 3.86223C4.62418 3.9309 4.62591 4.00253 4.61186 4.07194L4.19407 6.1307C4.18704 6.1654 4.18791 6.20122 4.19661 6.23555C4.2053 6.26989 4.22161 6.30189 4.24436 6.32925C4.2671 6.35661 4.29572 6.37864 4.32813 6.39376C4.36055 6.40888 4.39597 6.4167 4.43182 6.41667H5.31818C5.3871 6.41674 5.45506 6.43259 5.51672 6.46297C5.57839 6.49335 5.63208 6.53744 5.67357 6.59176C5.71506 6.64608 5.74323 6.70916 5.75586 6.77604C5.76849 6.84292 5.76524 6.91178 5.74636 6.97721L4.89 9.93945C4.84315 10.101 4.74425 10.2432 4.60827 10.3443C4.47228 10.4455 4.30662 10.5001 4.13636 10.5C4.06466 10.5001 3.99383 10.4844 3.929 10.4542C3.86416 10.424 3.80693 10.3799 3.76144 10.3252C3.71595 10.2705 3.68333 10.2064 3.66594 10.1378C3.64855 10.0691 3.64681 9.99747 3.66087 9.92806L4.07866 7.8693C4.08568 7.8346 4.08482 7.79878 4.07612 7.76445C4.06743 7.73011 4.05112 7.69811 4.02837 7.67075C4.00563 7.64339 3.97701 7.62136 3.94459 7.60624C3.91218 7.59112 3.87676 7.5833 3.84091 7.58333H2.95455C2.88563 7.58326 2.81767 7.56741 2.756 7.53703C2.69434 7.50665 2.64065 7.46256 2.59916 7.40824C2.55766 7.35392 2.52949 7.29084 2.51686 7.22396C2.50423 7.15708 2.50749 7.08822 2.52637 7.02279L3.38272 4.06055C3.42957 3.89896 3.52848 3.75683 3.66446 3.65569C3.80044 3.55455 3.9661 3.49989 4.13636 3.5Z" fill="url(#paint1_linear_359_30)"/>
<rect x="-1" width="15" height="4" fill="#8C8DA0"/>
</g>
<defs>
<linearGradient id="paint0_linear_359_30" x1="5.2" y1="4.87481e-08" x2="5.2" y2="14" gradientUnits="userSpaceOnUse">
<stop stop-color="#32ADFF"/>
<stop offset="1" stop-color="#006FD7"/>
</linearGradient>
<linearGradient id="paint1_linear_359_30" x1="5.2" y1="4.87481e-08" x2="5.2" y2="14" gradientUnits="userSpaceOnUse">
<stop stop-color="#32ADFF"/>
<stop offset="1" stop-color="#006FD7"/>
</linearGradient>
</defs>
</svg>

<svg viewBox="0 0 13 14" xmlns="http://www.w3.org/2000/svg" fill="none">
    <mask id="b" width="13" height="14" x="0" y="0" maskUnits="userSpaceOnUse" style="mask-type:alpha">
        <path fill="url(#a)" d="M1.182 0C.537 0 0 .53 0 1.167v12.25c0 .322.265.583.59.583h7.092c.326 0 .59-.261.59-.583v-2.625c0-.161.133-.292.296-.292h.296c.333 0 .59.254.59.583v.584c0 .96.801 1.75 1.773 1.75.972 0 1.773-.79 1.773-1.75V4.083c0-.55-.263-1.07-.709-1.4l-1.891-1.4a.597.597 0 0 0-.828.117.58.58 0 0 0 .12.817l.708.524a.58.58 0 0 1 .236.467v1.459c0 .538.383 1 .89 1.13.158.04.292.167.292.328v5.542a.579.579 0 0 1-.59.583.578.578 0 0 1-.592-.583v-.584c0-.96-.8-1.75-1.772-1.75h-.296a.294.294 0 0 1-.295-.291V1.167C8.273.53 7.735 0 7.09 0H1.18Zm2.954 3.5a.49.49 0 0 1 .375.175.476.476 0 0 1 .1.397L4.195 6.13a.236.236 0 0 0 .134.263.245.245 0 0 0 .104.023h.886a.45.45 0 0 1 .356.175.437.437 0 0 1 .072.385L4.89 9.94a.773.773 0 0 1-.282.405.79.79 0 0 1-.472.156.49.49 0 0 1-.375-.175.476.476 0 0 1-.1-.397l.418-2.059a.236.236 0 0 0-.134-.263.245.245 0 0 0-.104-.023h-.886a.45.45 0 0 1-.356-.175.437.437 0 0 1-.073-.385l.857-2.962a.773.773 0 0 1 .281-.405.79.79 0 0 1 .472-.156Z" />
    </mask>
    <g mask="url(#b)">
        <path fill="url(#c)" d="M1.182 0C.537 0 0 .53 0 1.167v12.25c0 .322.265.583.59.583h7.092c.326 0 .59-.261.59-.583v-2.625c0-.161.133-.292.296-.292h.296c.333 0 .59.254.59.583v.584c0 .96.801 1.75 1.773 1.75.972 0 1.773-.79 1.773-1.75V4.083c0-.55-.263-1.07-.709-1.4l-1.891-1.4a.597.597 0 0 0-.828.117.58.58 0 0 0 .12.817l.708.524a.58.58 0 0 1 .236.467v1.459c0 .538.383 1 .89 1.13.158.04.292.167.292.328v5.542a.579.579 0 0 1-.59.583.578.578 0 0 1-.592-.583v-.584c0-.96-.8-1.75-1.772-1.75h-.296a.294.294 0 0 1-.295-.291V1.167C8.273.53 7.735 0 7.09 0H1.18Zm2.954 3.5a.49.49 0 0 1 .375.175.476.476 0 0 1 .1.397L4.195 6.13a.236.236 0 0 0 .134.263.245.245 0 0 0 .104.023h.886a.45.45 0 0 1 .356.175.437.437 0 0 1 .072.385L4.89 9.94a.773.773 0 0 1-.282.405.79.79 0 0 1-.472.156.49.49 0 0 1-.375-.175.476.476 0 0 1-.1-.397l.418-2.059a.236.236 0 0 0-.134-.263.245.245 0 0 0-.104-.023h-.886a.45.45 0 0 1-.356-.175.437.437 0 0 1-.073-.385l.857-2.962a.773.773 0 0 1 .281-.405.79.79 0 0 1 .472-.156Z" />
        <path fill="#8C8DA0" d="M-1 0h15v4H-1z" />
    </g>
    <defs>
        <linearGradient id="a" x1="5.2" x2="5.2" y1="0" y2="14" gradientUnits="userSpaceOnUse">
            <stop stop-color="#32ADFF" />
            <stop offset="1" stop-color="#006FD7" />
        </linearGradient>
        <linearGradient id="c" x1="5.2" x2="5.2" y1="0" y2="14" gradientUnits="userSpaceOnUse">
            <stop stop-color="#32ADFF" />
            <stop offset="1" stop-color="#006FD7" />
        </linearGradient>
    </defs>
</svg>
